src/view/frontend/web/svg/heroicons/outline/backspace.svg

<svg  viewBox="0 0 24 24" fill="none" stroke="currentColor" xmlns="http://www.w3.org/2000/svg">
<path d="M12 14L14 12M14 12L16 10M14 12L12 10M14 12L16 14M3 12L9.41421 18.4142C9.78929 18.7893 10.298 19 10.8284 19H19C20.1046 19 21 18.1046 21 17V7C21 5.89543 20.1046 5 19 5H10.8284C10.298 5 9.78929 5.21071 9.41421 5.58579L3 12Z"  stroke-width="2" stroke-linecap="round" stroke-linejoin="round"/>
</svg>

<svg xmlns="http://www.w3.org/2000/svg" fill="none" stroke="currentColor" viewBox="0 0 24 24"><path stroke-linecap="round" stroke-linejoin="round" stroke-width="2" d="m12 14 2-2m0 0 2-2m-2 2-2-2m2 2 2 2M3 12l6.414 6.414a2 2 0 0 0 1.414.586H19a2 2 0 0 0 2-2V7a2 2 0 0 0-2-2h-8.172a2 2 0 0 0-1.414.586L3 12Z"/></svg>
